Obsidian/status/16s/vlc-panel.svg

<svg height="16" width="16" xmlns="http://www.w3.org/2000/svg"><path d="m7.96 1h-.02c-.68 0-1.15.19-1.22.46-.03.05-.08.1-.09.17l-.65 1.87c.97.7 3.07.7 4.03 0l-.64-1.87c-.01-.02-.02-.03-.02-.04 0-.09-.06-.17-.14-.24-.08-.08-.18-.15-.29-.19-.29-.1-.6-.16-.92-.16zm-2.81 5.4-.65 2.6h-1.05c-.29 0-.54.17-.65.43l-1.75 4.6c-.19.46.15.97.65.97h12.6c.5 0 .83-.51.64-.97l-1.75-4.6c-.11-.26-.36-.43-.64-.43h-1.06l-.65-2.6c-1.93.77-3.54.96-5.69 0zm6.44 2.74.58 1.94c.09.31-.04.63-.31.8-1.1.67-2.5 1.1-3.89 1.12-1.39.01-2.79-.39-3.87-1.14-.25-.18-.36-.49-.27-.78l.55-1.86c.4534.272 1.8787.7652 3.6089.78 1.1321.01 2.3951-.1322 3.6011-.86z" fill="#d3dae3" fill-rule="evenodd"/></svg>

<svg xmlns="http://www.w3.org/2000/svg" width="16" height="16" version="1.1">
 <defs>
  <style id="current-color-scheme" type="text/css">
   .ColorScheme-Text { color:#d3dae3; } .ColorScheme-Highlight { color:#5294e2; }
  </style>
 </defs>
 <path style="fill:currentColor;fill-rule:evenodd" class="ColorScheme-Text" d="M 7.96,1 H 7.94 C 7.26,1 6.79,1.19 6.72,1.46 6.69,1.51 6.64,1.56 6.63,1.63 L 5.98,3.5 C 6.95,4.2 9.05,4.2 10.01,3.5 L 9.37,1.63 C 9.36,1.61 9.35,1.6 9.35,1.59 V 1.59 C 9.35,1.5 9.29,1.42 9.21,1.35 9.13,1.27 9.03,1.2 8.92,1.16 8.63,1.06 8.32,1 8,1 Z M 5.15,6.4 4.5,9 H 3.45 C 3.16,9 2.91,9.17 2.8,9.43 L 1.05,14.03 C 0.86,14.49 1.2,15 1.7,15 H 14.3 C 14.8,15 15.13,14.49 14.94,14.03 L 13.19,9.43 C 13.08,9.17 12.83,9 12.55,9 H 11.49 L 10.84,6.4 C 8.91,7.17 7.3,7.36 5.15,6.4 Z M 11.59,9.14 12.17,11.08 C 12.26,11.39 12.13,11.71 11.86,11.88 10.76,12.55 9.36,12.98 7.97,13 6.58,13.01 5.18,12.61 4.1,11.86 3.85,11.68 3.74,11.37 3.83,11.08 L 4.38,9.22 C 4.8334,9.492 6.2587,9.9852 7.9889,10 9.121,10.01 10.384,9.8678 11.59,9.14 Z"/>
</svg>
